X:124
T:Jackie Coleman's 1
R:Reel
O:Ireland
D:Music at Matt Molloy's
S:My arrangement from various sources
Z:Transcription, arrangement, chords:Mike Long
M:C|
L:1/8
K:D
B|\
"D"AF~F2 EFDE|F2AF BFAF|"Em"E2BE dEBE|"A"ABde fedB|\
"D"AF~F2 EFDE|
F2AF BFAF|"Em"EBBA "G"B2AB|"A"ABde "D"fdd:|\
|:e|\
"D"fddc d2de|fd~d2 dfaf|
"A"eA~A2 eAfA|eA~A2 cdeg|\
"D"fddc d2de|fd~d2 dfaf|"G"g2{a}gf gbag|"A"faeg "D"fdd:|
